X:1
T: The Besom in Bloom
C:
R:Jig
Q:180
K:D
M:6/8
L:1/16
ed|c2B2A2 c4A2|d2B2A2 A4d2|c2B2A2 c4d2|e2d2c2 d2e2d2|c2B2A2 c4d2|e2d2e2 c'4b2|a2b2a2 g2e2c2|e2d2c2 d4ed|
c2B2A2 c4A2|d2B2A2 A4d2|c2B2A2 c4d2|e2d2c2 d2e2d2|c2B2A2 c4d2|e2d2e2 c'4b2|a2b2a2 g2e2c2|e2d2c2 d4e2|
f2g2f2 f2e2d2|e2f2e2 e4d2|c2B2A2 c4A2|d2B2A2 A4e2|f2g2f2 f2e2d2|e2f2e2 e2f2g2|a2b2a2 g2e2c2|e2d2c2 d4e2|
f2g2f2 f2e2d2|e2f2e2 e4d2|c2B2A2 c4A2|d2B2A2 A4e2|f2g2f2 f2e2d2|e2f2e2 e2f2g2|a2b2a2 g2e2c2|e2d2c2 d4||
